frontend/src/assets/plus.svg

<svg xmlns="http://www.w3.org/2000/svg" width="24" height="24" viewBox="0 0 24 24"><path d="M24 10h-10v-10h-4v10h-10v4h10v10h4v-10h10z"/></svg>

<svg xmlns="http://www.w3.org/2000/svg" width="24" height="24" viewBox="0 0 24 24">
  <path id="plus" d="M24,10H14V0H10V10H0v4H10V24h4V14H24Z" fill="#7dd3a0"/>
</svg>
